X: 022064
T: Black Road (The)
C: Joe Liddy
S: "The Leitrim Fiddler" (Dublin 1981)
L: 1/8
M: 6/8
R: jig
Q: 1/4 = 170
K: Gm
A | BAB cBc | def gfd | BAB dcB | cAF FGA |
BAB cBc | def fef | gfg gdc | BGG G2 :|
B/c/ | dgg gfd | cBc dBG | Bcd fdc | BAB GFD |
GFG BAB | cBc def | gfg gdc | BGG G2 :|
